SVG/bar-chart.svg

<?xml version="1.0" encoding="utf-8"?>
<!-- Generated by IcoMoon.io -->
<!DOCTYPE svg PUBLIC "-//W3C//DTD SVG 1.1//EN" "http://www.w3.org/Graphics/SVG/1.1/DTD/svg11.dtd">
<svg version="1.1" xmlns="http://www.w3.org/2000/svg" xmlns:xlink="http://www.w3.org/1999/xlink" width="16" height="14" viewBox="0 0 16 14">
<path fill="#444444" d="M5 7v4h-2v-4h2zM8 3v8h-2v-8h2zM16 12v1h-16v-12h1v11h15zM11 5v6h-2v-6h2zM14 2v9h-2v-9h2z"></path>
</svg>

<svg xmlns="http://www.w3.org/2000/svg" viewBox="0 0 16 14"><path d="M5 7v4H3V7h2zm3-4v8H6V3h2zm8 9v1H0V1h1v11h15zm-5-7v6H9V5h2zm3-3v9h-2V2h2z" /></svg>
